public/images/images/5.svg

<svg enable-background="new 0 0 100 100" viewBox="0 0 100 100" xmlns="http://www.w3.org/2000/svg"><path d="m6.3 50v50h6.3v-50z"/><path d="m18.7 50v50h6.3v-50z"/><path d="m31.3 50v50h6.3v-50z"/><path d="m43.8 50v50h6.2v-50z"/><path d="m56.2 50v50h6.3v-50z"/><path d="m68.8 50v50h6.2v-50z"/><path d="m81.3 50v50h6.3v-50z"/><path d="m93.7 50v50h6.3v-50z"/><path d="m0 0v50h6.3v-50z"/><path d="m12.5 0v50h6.3v-50z"/><path d="m25 0v50h6.3v-50z"/><path d="m37.5 0v50h6.3v-50z"/><path d="m50 0v50h6.3v-50z"/><path d="m62.5 0v50h6.3v-50z"/><path d="m75 0v50h6.3v-50z"/><path d="m87.5 0v50h6.3v-50z"/></svg>

<svg version="1.1" id="Ebene_1" xmlns="http://www.w3.org/2000/svg" xmlns:xlink="http://www.w3.org/1999/xlink" x="0px" y="0px" viewBox="0 0 100 100" style="enable-background:new 0 0 100 100;" xml:space="preserve">
<g>
	<path d="M6.3,50v50h6.3V50H6.3z"/>
	<path d="M18.7,50v50H25V50H18.7z"/>
	<path d="M31.3,50v50h6.3V50H31.3z"/>
	<path d="M43.8,50v50H50V50H43.8z"/>
	<path d="M56.2,50v50h6.3V50H56.2z"/>
	<path d="M68.8,50v50H75V50H68.8z"/>
	<path d="M81.3,50v50h6.3V50H81.3z"/>
	<path d="M93.7,50v50h6.3V50H93.7z"/>
	<path d="M0,0v50h6.3V0H0z"/>
	<path d="M12.5,0v50h6.3V0H12.5z"/>
	<path d="M25,0v50h6.3V0H25z"/>
	<path d="M37.5,0v50h6.3V0H37.5z"/>
	<path d="M50,0v50h6.3V0H50z"/>
	<path d="M62.5,0v50h6.3V0H62.5z"/>
	<path d="M75,0v50h6.3V0H75z"/>
	<path d="M87.5,0v50h6.3V0H87.5z"/>
</g>
</svg>
